X: 7260
T: Clare Shout, The
R: jig
M: 6/8
K: Dmajor
|:AFD DED|DED B,DA,|DFA dfa|baf edB|
AFD DED|DED B,DA,|B,EE EDE|1 FDC DdB:|2 FDC D2 E||
|:FAA B/B/AD|FAA BAF|GDB, BGD|dBG edB|
FAA BAD|FAA B/B/AF|GBd AFE|1 FDC D2 E:|2 FDC DdB||

